X: 3371
T: Ben's Brogues
R: jig
M: 6/8
K: Gmajor
|:G3 GBc|dGG GAB|G3 GBd|edB dBA|
G3 GAB|dBG GAB|cdc BAG|1 AGE DcB:|2 BGE DcA||
|:E3 B3|EBE FED|E3 EDE|GFE D3|
(E3 E)DE|GDG BGB|ded cBA|BAG A^FD:|
|:GBd dBA|GBd d2B|G3 GBd|eAB cBA|
GBd dBd|dBd dBd|edB dcA|1 BGE D3:|2 BGE DcB||

